devices/24/audio-card.svg

<svg xmlns="http://www.w3.org/2000/svg" viewBox="0 0 24 24" width="24" height="24">
  <defs id="defs3051">
    <style type="text/css" id="current-color-scheme">.ColorScheme-Text {color:#eff0f1;}</style>
  </defs>
  <g transform="translate(1,1)">
    <path style="fill:currentColor;fill-opacity:1;stroke:none" d="m 2,2 v 18 h 1 v -3 h 6 v 1 h 9 v -1 c 0,0 2,0 2,-2 0,-2 0,-7 0,-9 C 20,4 18,4 18,4 H 3 V 2 Z M 3,6 C 3,5 4,5 4,5 h 14 c 0,0 1,0 1,1 0,1 0,8 0,9 0,1 -1,1 -1,1 H 4 C 4,16 3,16 3,15 3,14 3,7 3,6 Z M 6,6 V 8 H 5 v 2 H 4 v 1 h 1 v 2 h 1 v 1 h 1 v -2 h 1 v -1 h 2 v 1 h 1 v 1 h 1 v 1 h 1 v 1 h 1 v -1 h 1 v -1 h 1 v -1 h 1 v -1 h 1 V 10 H 17 V 9 H 16 V 8 H 15 V 7 H 14 V 6 h -1 v 1 h -1 v 1 h -1 v 1 h -1 v 1 H 8 V 9 H 7 V 6 Z" class="ColorScheme-Text"/>
  </g>
</svg>

<svg xmlns="http://www.w3.org/2000/svg" viewBox="0 0 24 24" width="24" height="24">
  <defs id="defs3051">
    <style type="text/css" id="current-color-scheme">
      .ColorScheme-Text {
        color:#eff0f1;
      }
      </style>
  </defs>
  <g transform="translate(1,1)">
    <path style="fill:currentColor;fill-opacity:1;stroke:none" d="M 2 2 L 2 20 L 3 20 L 3 17 L 9 17 L 9 18 L 18 18 L 18 17 L 20 17 L 20 4 L 3 4 L 3 2 L 2 2 z M 3 5 L 19 5 L 19 16 L 3 16 L 3 5 z M 6 6 L 6 8 L 5 8 L 5 10 L 4 10 L 4 11 L 5 11 L 5 13 L 6 13 L 6 14 L 7 14 L 7 12 L 8 12 L 8 11 L 10 11 L 10 12 L 11 12 L 11 13 L 12 13 L 12 14 L 13 14 L 13 15 L 14 15 L 14 14 L 15 14 L 15 13 L 16 13 L 16 12 L 17 12 L 17 11 L 18 11 L 18 10 L 17 10 L 17 9 L 16 9 L 16 8 L 15 8 L 15 7 L 14 7 L 14 6 L 13 6 L 13 7 L 12 7 L 12 8 L 11 8 L 11 9 L 10 9 L 10 10 L 8 10 L 8 9 L 7 9 L 7 6 L 6 6 z " class="ColorScheme-Text"/>
  </g>
</svg>
